svg/u1f915.svg

<svg viewBox="0 0 128 128" xmlns="http://www.w3.org/2000/svg">
  <radialGradient id="face_1_" cx="63.6" cy="-2088.8999" gradientTransform="matrix(1 0 0 -1 0 -2026)" gradientUnits="userSpaceOnUse" r="56.9597">
    <stop offset="0.5" stop-color="#FDE030"/>
    <stop offset="0.9188" stop-color="#F7C02B"/>
    <stop offset="1" stop-color="#F4A223"/>
  </radialGradient>
  <path id="face_129_" d="M63.6,118.8c-27.9,0-58-17.5-58-55.9S35.7,7,63.6,7c15.5,0,29.8,5.1,40.4,14.4 c11.5,10.2,17.6,24.6,17.6,41.5s-6.1,31.2-17.6,41.4C93.4,113.6,79,118.8,63.6,118.8z" fill="url(#face_1_)"/>
  <path d="M111.49,29.67c5.33,8.6,8.11,18.84,8.11,30.23c0,16.9-6.1,31.2-17.6,41.4 c-10.6,9.3-25,14.5-40.4,14.5c-18.06,0-37.04-7.35-48.18-22.94c10.76,17.66,30.99,25.94,50.18,25.94c15.4,0,29.8-5.2,40.4-14.5 c11.5-10.2,17.6-24.5,17.6-41.4C121.6,50.16,118.13,38.84,111.49,29.67z" fill="#EB8F00"/>
  <g id="face-with-head-bandage_1_">
    <path id="mouth_112_" d="M86.11,100.49c-0.32-0.06-0.62-0.21-0.87-0.43c-4.26-3.68-9.59-6.3-15.51-7.63 c-5.91-1.33-11.85-1.26-17.28,0.24c-0.32,0.09-0.66,0.09-0.97,0.01l0,0c-0.69-0.18-1.23-0.75-1.36-1.46 c-0.13-0.69,0.16-1.38,0.75-1.79c5.92-4.08,13.28-5.47,20.4-3.86c7.12,1.6,13.18,6.01,16.77,12.24c0.36,0.62,0.33,1.37-0.09,1.94 C87.54,100.34,86.81,100.62,86.11,100.49z" fill="#422B0D"/>
    <g>
      <path d="M44.04,54.94L44.04,54.94c-4.19,0-8,3.54-8,9.42c0,5.87,3.81,9.42,8,9.42l0,0c4.19,0,8-3.54,8-9.42 C52.04,58.48,48.24,54.94,44.04,54.94z" fill="#422B0D"/>
      <g id="peepers_163_">
        <path d="M43.65,58.87L43.65,58.87c-1.03-0.72-2.58-0.49-3.58,0.95c-1,1.45-0.67,2.97,0.36,3.69l0,0 c1.03,0.72,2.58,0.49,3.58-0.95S44.69,59.59,43.65,58.87z" fill="#896024"/>
      </g>
      <path d="M82.4,54.94L82.4,54.94c-4.19,0-8,3.54-8,9.42c0,5.87,3.81,9.42,8,9.42l0,0c4.19,0,8-3.54,8-9.42 C90.4,58.48,86.59,54.94,82.4,54.94z" fill="#422B0D"/>
      <g id="peepers_16_">
        <path d="M82.01,58.87L82.01,58.87c-1.03-0.72-2.58-0.49-3.58,0.95c-1,1.45-0.67,2.97,0.36,3.69l0,0 c1.03,0.72,2.58,0.49,3.58-0.95C83.38,61.11,83.04,59.59,82.01,58.87z" fill="#896024"/>
      </g>
    </g>
  </g>
  <g id="bandage-face_1_">
    <g id="prop_34_">
      <path d="M104,21.4c-5.5-4.83-12.01-8.51-19.16-10.95l-1.89,1.04L58.97,22.92l-40.51,5.51l-2.1,0.23 C9.74,37.32,5.6,48.67,5.6,62.9c0,5.42,0.62,10.41,1.73,15l59.63-33.03l50.26-4.97C114.26,32.81,109.82,26.57,104,21.4z" fill="#F5F5F5"/>
    </g>
    <path d="M7.69,79.4l-0.56-2.18c0,0,31.83-24.86,63.76-34.46l5.6,0.85C44.37,53.8,8.02,79.16,7.69,79.4z" fill="#808080"/>
    <g>
      <linearGradient id="SVGID_1_" gradientUnits="userSpaceOnUse" x1="59.5692" x2="58.3885" y1="24.5702" y2="14.9541">
        <stop offset="0.0652" stop-color="#B3B3B3"/>
        <stop offset="0.2661" stop-color="#BDBDBD" stop-opacity="0.7505"/>
        <stop offset="0.6106" stop-color="#D9D9D9" stop-opacity="0.3227"/>
        <stop offset="0.8705" stop-color="#F2F2F2" stop-opacity="0"/>
      </linearGradient>
      <polygon fill="url(#SVGID_1_)" points="62.24,21.36 56.45,24.12 62.24,21.36 "/>
    </g>
    <path d="M84.84,10.45c3.52,1.05,6.94,2.46,10.22,4.15c3.28,1.69,6.44,3.67,9.29,6.12 c2.8,2.47,5.3,5.29,7.46,8.34c1.08,1.53,2.08,3.11,3,4.74c0.92,1.64,1.76,3.28,2.51,5.08l0.62,1.51l-1.68,0.17 c-9.13,0.95-18.27,1.87-27.41,2.7c-4.57,0.44-9.14,0.84-13.71,1.23c-4.57,0.39-9.15,0.81-13.72,1.15 c-9.13,0.69-18.26,1.49-27.39,2.37l-13.69,1.38c-4.56,0.48-9.12,1.02-13.68,1.56c4.48-1.01,9.01-1.82,13.53-2.63 c4.52-0.81,9.06-1.53,13.61-2.19c9.1-1.32,18.23-2.39,27.38-3.26l13.7-1.32c4.57-0.43,9.13-0.86,13.71-1.24 c9.14-0.82,18.28-1.54,27.43-2.25l-1.06,1.68c-1.23-3.26-2.94-6.53-4.88-9.53c-1.93-3.03-4.18-5.88-6.75-8.4 c-2.57-2.51-5.54-4.65-8.67-6.51c-1.57-0.93-3.18-1.8-4.82-2.6C88.21,11.89,86.55,11.12,84.84,10.45z" fill="#808080"/>
    <path d="M104,21.45c-5.2,0.31-10.35,0.45-15.51,0.64c-2.58,0.12-5.16,0.08-7.74,0.22L73,22.72 c-5.16,0.27-10.33,0.64-15.48,1.09c-5.16,0.4-10.31,0.91-15.47,1.46l-0.02-0.1c10.26-1.48,20.57-2.53,30.9-3.27 c5.17-0.35,10.34-0.65,15.52-0.77c5.18-0.1,10.37-0.1,15.54,0.23L104,21.45z" fill="#808080"/>
  </g>
  <path d="M16.36,28.65c-2.02,3.99-3.86,7.99-5.4,12.07c-0.75,2.04-1.45,4.09-1.97,6.18 c-0.58,2.08-0.94,4.15-1.16,6.29c-0.47,4.36-0.85,8.72-0.97,13.09c-0.05,2.18-0.08,4.37,0.05,6.56c0.1,2.19,0.28,4.38,0.77,6.56 c-1.12-1.96-1.72-4.17-2.23-6.37c-0.48-2.21-0.77-4.45-0.93-6.7c-0.32-4.5-0.18-9.01,0.33-13.47c0.5-4.59,1.96-9.03,3.97-13.06 C10.84,35.74,13.32,31.95,16.36,28.65z" fill="#808080"/>
</svg>

<svg viewBox="0 0 128 128" xmlns="http://www.w3.org/2000/svg">
  <defs>
    <radialGradient id="face_1_" cx="63.6" cy="-62.8999" gradientTransform="matrix(1 0 0 -1 0 0)" gradientUnits="userSpaceOnUse" r="56.9597">
      <stop offset="0.5" stop-color="#FDE030"/>
      <stop offset="0.9188" stop-color="#F7C02B"/>
      <stop offset="1" stop-color="#F4A223"/>
    </radialGradient>
    <linearGradient id="SVGID_1_" gradientUnits="userSpaceOnUse" x1="59.5692" x2="58.3885" y1="24.5702" y2="14.9541">
      <stop offset="0.0652" stop-color="#B3B3B3"/>
      <stop offset="0.2661" stop-color="#BDBDBD" stop-opacity="0.7505"/>
      <stop offset="0.6106" stop-color="#D9D9D9" stop-opacity="0.3227"/>
      <stop offset="0.8705" stop-color="#F2F2F2" stop-opacity="0"/>
    </linearGradient>
  </defs>
  <path id="face_129_" d="M63.6,118.8 C35.7,118.8 5.6,101.3 5.6,62.9 C5.6,24.5 35.7,7 63.6,7 C79.1,7 93.4,12.1 104,21.4 C115.5,31.6 121.6,46 121.6,62.9 C121.6,79.8 115.5,94.1 104,104.3 C93.4,113.6 79,118.8 63.6,118.8 Z" fill="url(#face_1_)"/>
  <path d="M111.49,29.67 C116.82,38.27 119.6,48.51 119.6,59.9 C119.6,76.8 113.5,91.1 102,101.3 C91.4,110.6 77,115.8 61.6,115.8 C43.54,115.8 24.56,108.45 13.42,92.86 C24.18,110.52 44.41,118.8 63.6,118.8 C79,118.8 93.4,113.6 104,104.3 C115.5,94.1 121.6,79.8 121.6,62.9 C121.6,50.16 118.13,38.84 111.49,29.67 Z" fill="#EB8F00"/>
  <path id="mouth_112_" d="M86.11,100.49 C85.79,100.43 85.49,100.28 85.24,100.06 C80.98,96.38 75.65,93.76 69.73,92.43 C63.82,91.1 57.88,91.17 52.45,92.67 C52.13,92.76 51.79,92.76 51.48,92.68 L51.48,92.68 C50.79,92.5 50.25,91.93 50.12,91.22 C49.99,90.53 50.28,89.84 50.87,89.43 C56.79,85.35 64.15,83.96 71.27,85.57 C78.39,87.17 84.45,91.58 88.04,97.81 C88.4,98.43 88.37,99.18 87.95,99.75 C87.54,100.34 86.81,100.62 86.11,100.49 Z" fill="#422B0D"/>
  <path d="M44.04,54.94 L44.04,54.94 C39.85,54.94 36.04,58.48 36.04,64.36 C36.04,70.23 39.85,73.78 44.04,73.78 L44.04,73.78 C48.23,73.78 52.04,70.24 52.04,64.36 C52.04,58.48 48.24,54.94 44.04,54.94 Z" fill="#422B0D"/>
  <path d="M43.65,58.87 L43.65,58.87 C42.62,58.15 41.07,58.38 40.07,59.82 C39.07,61.27 39.4,62.79 40.43,63.51 L40.43,63.51 C41.46,64.23 43.01,64 44.01,62.56 C45.01,61.12 44.69,59.59 43.65,58.87 Z" fill="#896024"/>
  <path d="M82.4,54.94 L82.4,54.94 C78.21,54.94 74.4,58.48 74.4,64.36 C74.4,70.23 78.21,73.78 82.4,73.78 L82.4,73.78 C86.59,73.78 90.4,70.24 90.4,64.36 C90.4,58.48 86.59,54.94 82.4,54.94 Z" fill="#422B0D"/>
  <path d="M82.01,58.87 L82.01,58.87 C80.98,58.15 79.43,58.38 78.43,59.82 C77.43,61.27 77.76,62.79 78.79,63.51 L78.79,63.51 C79.82,64.23 81.37,64 82.37,62.56 C83.38,61.11 83.04,59.59 82.01,58.87 Z" fill="#896024"/>
  <path d="M104,21.4 C98.5,16.57 91.99,12.89 84.84,10.45 L82.95,11.49 L58.97,22.92 L18.46,28.43 L16.36,28.66 C9.74,37.32 5.6,48.67 5.6,62.9 C5.6,68.32 6.22,73.31 7.33,77.9 L66.96,44.87 L117.22,39.9 C114.26,32.81 109.82,26.57 104,21.4 Z" fill="#F5F5F5"/>
  <path d="M7.69,79.4 L7.13,77.22 C7.13,77.22 38.96,52.36 70.89,42.76 L76.49,43.61 C44.37,53.8 8.02,79.16 7.69,79.4 Z" fill="#808080"/>
  <path d="M84.84,10.45 C88.36,11.5 91.78,12.91 95.06,14.6 C98.34,16.29 101.5,18.27 104.35,20.72 C107.15,23.19 109.65,26.01 111.81,29.06 C112.89,30.59 113.89,32.17 114.81,33.8 C115.73,35.44 116.57,37.08 117.32,38.88 L117.94,40.39 L116.26,40.56 C107.13,41.51 97.99,42.43 88.85,43.26 C84.28,43.7 79.71,44.1 75.14,44.49 C70.57,44.88 65.99,45.3 61.42,45.64 C52.29,46.33 43.16,47.13 34.03,48.01 L20.34,49.39 C15.78,49.87 11.22,50.41 6.66,50.95 C11.14,49.94 15.67,49.13 20.19,48.32 C24.71,47.51 29.25,46.79 33.8,46.13 C42.9,44.81 52.03,43.74 61.18,42.87 L74.88,41.55 C79.45,41.12 84.01,40.69 88.59,40.31 C97.73,39.49 106.87,38.77 116.02,38.06 L114.96,39.74 C113.73,36.48 112.02,33.21 110.08,30.21 C108.15,27.18 105.9,24.33 103.33,21.81 C100.76,19.3 97.79,17.16 94.66,15.3 C93.09,14.37 91.48,13.5 89.84,12.7 C88.21,11.89 86.55,11.12 84.84,10.45 Z" fill="#808080"/>
  <path d="M104,21.45 C98.8,21.76 93.65,21.9 88.49,22.09 C85.91,22.21 83.33,22.17 80.75,22.31 L73,22.72 C67.84,22.99 62.67,23.36 57.52,23.81 C52.36,24.21 47.21,24.72 42.05,25.27 L42.03,25.17 C52.29,23.69 62.6,22.64 72.93,21.9 C78.1,21.55 83.27,21.25 88.45,21.13 C93.63,21.03 98.82,21.03 103.99,21.36 L104,21.45 Z" fill="#808080"/>
  <path d="M16.36,28.65 C14.34,32.64 12.5,36.64 10.96,40.72 C10.21,42.76 9.51,44.81 8.99,46.9 C8.41,48.98 8.05,51.05 7.83,53.19 C7.36,57.55 6.98,61.91 6.86,66.28 C6.81,68.46 6.78,70.65 6.91,72.84 C7.01,75.03 7.19,77.22 7.68,79.4 C6.56,77.44 5.96,75.23 5.45,73.03 C4.97,70.82 4.68,68.58 4.52,66.33 C4.2,61.83 4.34,57.32 4.85,52.86 C5.35,48.27 6.81,43.83 8.82,39.8 C10.84,35.74 13.32,31.95 16.36,28.65 Z" fill="#808080"/>
</svg>
